plugins/VultModulesFree/res/Bjork.svg

<?xml version="1.0" encoding="UTF-8" standalone="no"?>
<!DOCTYPE svg PUBLIC "-//W3C//DTD SVG 1.1//EN" "http://www.w3.org/Graphics/SVG/1.1/DTD/svg11.dtd">
<svg width="300px" height="380px" version="1.1" xmlns="http://www.w3.org/2000/svg" xmlns:xlink="http://www.w3.org/1999/xlink" xml:space="preserve" xmlns:serif="http://www.serif.com/" style="fill-rule:evenodd;clip-rule:evenodd;stroke-miterlimit:10;">
    <g id="Panel">
        <g transform="matrix(4.00166,0,0,4.00166,68.662,-668.448)">
            <g id="Background">
                <g id="text9293-4">
                    <g transform="matrix(1,0,0,1,7.84711,253.965)">
                        <path d="M1.016,-1.176l-0.466,0l0,0.252l0.44,0l0,0.332l-0.44,0l0,0.26l0.466,0l0,0.332l-0.858,0l0,-1.508l0.858,0l0,0.332Z" style="fill:rgb(204,204,204);fill-rule:nonzero;"/>
                        <path d="M1.73,-0.804l-0.47,-0.704l0.484,0l0.204,0.39l0.252,-0.39l0.484,0l-0.498,0.704l0.562,0.804l-0.478,0l-0.302,-0.492l-0.354,0.492l-0.474,0l0.59,-0.804Z" style="fill:rgb(204,204,204);fill-rule:nonzero;"/>
                        <path d="M3.478,-1.176l0,1.176l-0.392,0l0,-1.176l-0.322,0l0,-0.332l1.036,0l0,0.332l-0.322,0Z" style="fill:rgb(204,204,204);fill-rule:nonzero;"/>
                        <path d="M3.88,-0.192c0,-0.032 0.006,-0.062 0.018,-0.091c0.012,-0.029 0.029,-0.054 0.05,-0.075c0.021,-0.021 0.046,-0.038 0.075,-0.05c0.029,-0.012 0.059,-0.018 0.091,-0.018c0.032,0 0.062,0.006 0.091,0.018c0.029,0.012 0.054,0.029 0.075,0.05c0.021,0.021 0.038,0.046 0.05,0.075c0.012,0.029 0.018,0.059 0.018,0.091c0,0.032 -0.006,0.062 -0.018,0.091c-0.012,0.029 -0.029,0.054 -0.05,0.075c-0.021,0.021 -0.046,0.038 -0.075,0.05c-0.029,0.012 -0.059,0.018 -0.091,0.018c-0.032,0 -0.062,-0.006 -0.091,-0.018c-0.029,-0.012 -0.054,-0.029 -0.075,-0.05c-0.021,-0.021 -0.038,-0.046 -0.05,-0.075c-0.012,-0.029 -0.018,-0.059 -0.018,-0.091Z" style="fill:rgb(204,204,204);fill-rule:nonzero;"/>
                        <path d="M5.634,-0.754c0,0.06 0.011,0.115 0.034,0.166c0.023,0.051 0.053,0.095 0.092,0.132c0.039,0.037 0.084,0.066 0.135,0.087c0.051,0.021 0.106,0.031 0.163,0.031c0.057,0 0.112,-0.01 0.163,-0.031c0.051,-0.021 0.097,-0.05 0.136,-0.087c0.039,-0.037 0.07,-0.081 0.093,-0.132c0.023,-0.051 0.034,-0.106 0.034,-0.166c0,-0.06 -0.011,-0.115 -0.034,-0.166c-0.023,-0.051 -0.054,-0.095 -0.093,-0.132c-0.039,-0.037 -0.085,-0.066 -0.136,-0.087c-0.051,-0.021 -0.106,-0.031 -0.163,-0.031c-0.057,0 -0.112,0.01 -0.163,0.031c-0.051,0.021 -0.096,0.05 -0.135,0.087c-0.039,0.037 -0.069,0.081 -0.092,0.132c-0.023,0.051 -0.034,0.106 -0.034,0.166Zm-0.41,0c0,-0.112 0.021,-0.216 0.062,-0.313c0.041,-0.097 0.099,-0.181 0.172,-0.253c0.073,-0.072 0.161,-0.128 0.263,-0.169c0.102,-0.041 0.214,-0.061 0.337,-0.061c0.121,0 0.233,0.02 0.336,0.061c0.103,0.041 0.191,0.097 0.265,0.169c0.074,0.072 0.132,0.156 0.173,0.253c0.041,0.097 0.062,0.201 0.062,0.313c0,0.112 -0.021,0.216 -0.062,0.313c-0.041,0.097 -0.099,0.181 -0.173,0.253c-0.074,0.072 -0.162,0.128 -0.265,0.169c-0.103,0.041 -0.215,0.061 -0.336,0.061c-0.123,0 -0.235,-0.02 -0.337,-0.061c-0.102,-0.041 -0.19,-0.097 -0.263,-0.169c-0.073,-0.072 -0.131,-0.156 -0.172,-0.253c-0.041,-0.097 -0.062,-0.201 -0.062,-0.313Z" style="fill:rgb(204,204,204);fill-rule:nonzero;"/>
                        <path d="M7.97,-1.122c-0.043,-0.035 -0.085,-0.06 -0.128,-0.077c-0.043,-0.017 -0.084,-0.025 -0.124,-0.025c-0.051,0 -0.092,0.012 -0.124,0.036c-0.032,0.024 -0.048,0.055 -0.048,0.094c0,0.027 0.008,0.049 0.024,0.066c0.016,0.017 0.037,0.032 0.063,0.045c0.026,0.013 0.055,0.024 0.088,0.033c0.033,0.009 0.065,0.019 0.097,0.03c0.128,0.043 0.222,0.1 0.281,0.171c0.059,0.071 0.089,0.164 0.089,0.279c0,0.077 -0.013,0.147 -0.039,0.21c-0.026,0.063 -0.064,0.116 -0.114,0.161c-0.05,0.045 -0.111,0.079 -0.184,0.104c-0.073,0.025 -0.155,0.037 -0.247,0.037c-0.191,0 -0.367,-0.057 -0.53,-0.17l0.168,-0.316c0.059,0.052 0.117,0.091 0.174,0.116c0.057,0.025 0.114,0.038 0.17,0.038c0.064,0 0.112,-0.015 0.143,-0.044c0.031,-0.029 0.047,-0.063 0.047,-0.1c0,-0.023 -0.004,-0.042 -0.012,-0.059c-0.008,-0.017 -0.021,-0.032 -0.04,-0.046c-0.019,-0.014 -0.043,-0.027 -0.073,-0.039c-0.03,-0.012 -0.066,-0.025 -0.109,-0.04c-0.051,-0.016 -0.1,-0.034 -0.149,-0.053c-0.049,-0.019 -0.092,-0.045 -0.13,-0.077c-0.038,-0.032 -0.069,-0.072 -0.092,-0.121c-0.023,-0.049 -0.035,-0.11 -0.035,-0.185c0,-0.075 0.012,-0.142 0.037,-0.203c0.025,-0.061 0.059,-0.113 0.104,-0.156c0.045,-0.043 0.099,-0.077 0.164,-0.101c0.065,-0.024 0.137,-0.036 0.217,-0.036c0.075,0 0.153,0.01 0.234,0.031c0.081,0.021 0.159,0.051 0.234,0.091l-0.156,0.306Z" style="fill:rgb(204,204,204);fill-rule:nonzero;"/>
                        <path d="M9.52,-1.004c-0.091,-0.111 -0.203,-0.166 -0.336,-0.166c-0.059,0 -0.113,0.011 -0.163,0.032c-0.05,0.021 -0.093,0.05 -0.129,0.087c-0.036,0.037 -0.064,0.08 -0.085,0.131c-0.021,0.051 -0.031,0.105 -0.031,0.164c0,0.06 0.01,0.115 0.031,0.166c0.021,0.051 0.049,0.095 0.086,0.132c0.037,0.037 0.08,0.067 0.129,0.088c0.049,0.021 0.103,0.032 0.16,0.032c0.125,0 0.238,-0.053 0.338,-0.16l0,0.464l-0.04,0.014c-0.06,0.021 -0.116,0.037 -0.168,0.047c-0.052,0.01 -0.103,0.015 -0.154,0.015c-0.104,0 -0.204,-0.02 -0.299,-0.059c-0.095,-0.039 -0.179,-0.095 -0.252,-0.166c-0.073,-0.071 -0.131,-0.156 -0.175,-0.254c-0.044,-0.098 -0.066,-0.205 -0.066,-0.321c0,-0.116 0.022,-0.222 0.065,-0.319c0.043,-0.097 0.101,-0.18 0.174,-0.25c0.073,-0.07 0.157,-0.125 0.253,-0.164c0.096,-0.039 0.197,-0.059 0.302,-0.059c0.06,0 0.119,0.006 0.177,0.019c0.058,0.013 0.119,0.032 0.183,0.059l0,0.468Z" style="fill:rgb(204,204,204);fill-rule:nonzero;"/>
                    </g>
                    <g id="rect9931" transform="matrix(1.89392,0,0,0.945274,-17.2605,-18.7148)">
                        <rect x="0.054" y="196.512" width="39.584" height="100.458" style="fill:rgb(32,32,32);"/>
                    </g>
                </g>
            </g>
        </g>
        <g id="g50" transform="matrix(0.0956609,0,0,0.0956609,119.457,280.461)">
            <path id="path42" d="M224.699,869.111l27.948,0l26.026,86.945l26.911,-86.945l27.806,0l-36.174,108.69c-3.38,10.021 -9.436,15.027 -18.173,15.027c-8.854,0 -14.971,-5.059 -18.345,-15.181l-35.999,-108.536Z" style="fill:rgb(102,102,102);fill-rule:nonzero;"/>
            <path id="path44" d="M335.484,961.026l0,-91.915l26.211,0l0,91.041c0.464,3.263 3.495,4.893 9.087,4.893l17.824,0c5.357,0 8.328,-1.512 8.912,-4.543l0.175,-0.874l0,-90.517l26.211,0l0,91.74c0,8.038 -0.873,13.747 -2.621,17.125c-4.66,8.972 -12.873,13.455 -24.639,13.455l-33.9,0c-12.118,0 -20.388,-4.601 -24.814,-13.805c-1.632,-3.377 -2.446,-8.911 -2.446,-16.6l0,0Z" style="fill:rgb(102,102,102);fill-rule:nonzero;"/>
            <path id="path46" d="M435.961,961.551l0,-92.439l26.212,0l0,90.342c0,3.73 2.211,5.592 6.64,5.592l46.657,0l-0.175,26.387l-48.754,0c-1.747,0 -3.263,-0.058 -4.543,-0.175c-9.437,-0.813 -16.137,-3.582 -20.096,-8.3c-3.962,-4.72 -5.941,-11.854 -5.941,-21.407l0,0Z" style="fill:rgb(102,102,102);fill-rule:nonzero;"/>
            <path id="path48" d="M516.341,895.497l0,-26.386l78.635,0l0,26.386l-26.386,0l0,95.935l-26.212,0l0,-95.935l-26.037,0Z" style="fill:rgb(102,102,102);fill-rule:nonzero;"/>
        </g>
        <g id="g8091" transform="matrix(0.0359254,0,0,0.0359254,129.829,366.685)">
            <path id="path4" d="M210.282,78.87c0,-125.517 -101.752,-227.268 -227.271,-227.268c-125.514,0 -227.267,101.751 -227.267,227.268c0,125.516 101.752,227.268 227.267,227.268c125.519,0 227.271,-101.752 227.271,-227.268l0,0Z" style="fill:rgb(117,117,117);fill-rule:nonzero;stroke:rgb(53,53,53);stroke-width:17px;"/>
            <g id="g40" transform="matrix(1,0,0,1,-426.825,-542.575)">
                <path id="polygon6" d="M357.002,759.965l15.391,-24.781l-29.594,-66.614l-61.688,-63.583l12.788,86.322l16.629,35.632l23.179,35.166l23.295,-2.142Z" style="fill:rgb(43,43,43);fill-rule:nonzero;"/>
                <path id="polygon8" d="M460.762,760.17l-15.392,-24.783l29.597,-66.612l61.685,-63.582l-12.787,86.321l-16.63,35.631l-23.175,35.168l-23.298,-2.143Z" style="fill:rgb(38,38,38);fill-rule:nonzero;"/>
                <path id="polygon12" d="M337.948,452.81l71.936,-18.383l0,374.323l-37.568,-73.799l-29.517,-66.381l-28.471,-16.175l-57.105,-81.295l-1.598,-21.58l31.971,-57.547l50.352,-39.163Z" style="fill:rgb(66,66,66);fill-rule:nonzero;"/>
                <path id="polygon14" d="M481.727,452.944l-71.932,-18.382l0,374.325l37.564,-73.801l29.518,-66.379l28.473,-16.178l57.101,-81.295l1.599,-21.579l-31.969,-57.547l-50.354,-39.164Z" style="fill:rgb(51,51,51);fill-rule:nonzero;"/>
                <path id="polyline16" d="M361.886,616.429l47.96,-46.887l0,34.229l-47.96,47.827l0,-35.169" style="fill:rgb(76,76,76);fill-rule:nonzero;"/>
                <path id="polygon18" d="M409.881,603.732l-47.957,47.827l10.469,83.625l37.491,73.566l-0.003,-205.018Z" style="fill:rgb(91,91,91);fill-rule:nonzero;"/>
                <path id="polygon20" d="M409.884,808.75l-37.491,-73.566l37.485,-17.672l0.006,91.238Z" style="fill:rgb(51,51,51);fill-rule:nonzero;"/>
                <path id="polygon22" d="M361.924,651.559l0,-35.169l-34.766,-43.958l-41.119,-33.129l-0.043,25.934l21.582,50.752l54.346,35.57Z" style="fill:white;fill-rule:nonzero;"/>
                <path id="polyline24" d="M457.816,616.448l-47.957,-46.887l0,34.229l47.957,47.826l0,-35.168" style="fill:rgb(45,45,45);fill-rule:nonzero;"/>
                <path id="polygon26" d="M409.804,603.732l47.954,47.827l-10.469,83.625l-37.488,73.566l0.003,-205.018Z" style="fill:rgb(53,53,53);fill-rule:nonzero;"/>
                <path id="polygon28" d="M409.801,808.75l37.488,-73.566l-37.482,-17.672l-0.006,91.238Z" style="fill:rgb(25,25,25);fill-rule:nonzero;"/>
                <path id="polygon30" d="M457.758,651.559l0,-35.168l34.765,-43.958l41.122,-33.13l0.041,25.935l-21.578,50.753l-54.35,35.568Z" style="fill:white;fill-rule:nonzero;"/>
                <path id="polyline32" d="M338.399,452.22l71.425,117.329l-0.154,-135.546" style="fill:rgb(56,56,56);fill-rule:nonzero;"/>
                <path id="polyline34" d="M481.271,452.232l-71.425,117.329l0.154,-135.545" style="fill:rgb(45,45,45);fill-rule:nonzero;"/>
                <path id="polygon36" d="M342.815,668.578l19.143,-16.982l10.448,83.674l-29.591,-66.692Z" style="fill:rgb(51,51,51);fill-rule:nonzero;"/>
                <path id="polygon38" d="M476.975,668.989l-19.144,-16.982l-10.448,83.675l29.592,-66.693Z" style="fill:rgb(28,28,28);fill-rule:nonzero;"/>
            </g>
        </g>
    </g>
</svg>

<svg xmlns:dc="http://purl.org/dc/elements/1.1/" xmlns:cc="http://creativecommons.org/ns#" xmlns:rdf="http://www.w3.org/1999/02/22-rdf-syntax-ns#" xmlns:svg="http://www.w3.org/2000/svg" xmlns="http://www.w3.org/2000/svg" xmlns:xlink="http://www.w3.org/1999/xlink" xmlns:sodipodi="http://sodipodi.sourceforge.net/DTD/sodipodi-0.dtd" xmlns:inkscape="http://www.inkscape.org/namespaces/inkscape" width="300px" height="380px" version="1.1" xml:space="preserve" style="fill-rule:evenodd;clip-rule:evenodd;stroke-miterlimit:10;" id="svg919" sodipodi:docname="Bjork.svg" inkscape:version="0.92.3 (2405546, 2018-03-11)">
  <defs id="defs923">
    <linearGradient inkscape:collect="always" id="linearGradient980">
      <stop style="stop-color:#090d11;stop-opacity:1" offset="0" id="stop976"/>
      <stop style="stop-color:#18232e;stop-opacity:1" offset="1" id="stop978"/>
    </linearGradient>
    <linearGradient inkscape:collect="always" xlink:href="#linearGradient980" id="linearGradient982" x1="-17.158228" y1="262.00323" x2="57.810703" y2="167.04288" gradientUnits="userSpaceOnUse"/>
  </defs>
  <metadata id="metadata925">
    <rdf:RDF>
      <cc:Work rdf:about="">
        <dc:format>image/svg+xml</dc:format>
        <dc:type rdf:resource="http://purl.org/dc/dcmitype/StillImage"/>
      </cc:Work>
    </rdf:RDF>
  </metadata>
  <sodipodi:namedview pagecolor="#ffffff" bordercolor="#666666" borderopacity="1" objecttolerance="10" gridtolerance="10" guidetolerance="10" inkscape:pageopacity="0" inkscape:pageshadow="2" inkscape:window-width="1920" inkscape:window-height="1018" id="namedview921" showgrid="false" inkscape:zoom="2.2342105" inkscape:cx="150" inkscape:cy="190" inkscape:window-x="-8" inkscape:window-y="-8" inkscape:window-maximized="1" inkscape:current-layer="svg919"/>
  <g id="Background" transform="matrix(4.00166,0,0,4.00166,68.662,-668.448)" style="fill:url(#linearGradient982);fill-opacity:1">
    <g id="text9293-4" style="fill:url(#linearGradient982);fill-opacity:1">
      <g transform="translate(7.84711,253.965)" id="g885" style="fill:url(#linearGradient982);fill-opacity:1">
        <path d="M 1.016,-1.176 H 0.55 v 0.252 h 0.44 v 0.332 H 0.55 v 0.26 H 1.016 V 0 H 0.158 v -1.508 h 0.858 z" style="fill:url(#linearGradient982);fill-rule:nonzero;fill-opacity:1" id="path871" inkscape:connector-curvature="0"/>
        <path d="M 1.73,-0.804 1.26,-1.508 h 0.484 l 0.204,0.39 0.252,-0.39 H 2.684 L 2.186,-0.804 2.748,0 H 2.27 L 1.968,-0.492 1.614,0 H 1.14 Z" style="fill:url(#linearGradient982);fill-rule:nonzero;fill-opacity:1" id="path873" inkscape:connector-curvature="0"/>
        <path d="M 3.478,-1.176 V 0 H 3.086 V -1.176 H 2.764 V -1.508 H 3.8 v 0.332 z" style="fill:url(#linearGradient982);fill-rule:nonzero;fill-opacity:1" id="path875" inkscape:connector-curvature="0"/>
        <path d="m 3.88,-0.192 c 0,-0.032 0.006,-0.062 0.018,-0.091 0.012,-0.029 0.029,-0.054 0.05,-0.075 0.021,-0.021 0.046,-0.038 0.075,-0.05 0.029,-0.012 0.059,-0.018 0.091,-0.018 0.032,0 0.062,0.006 0.091,0.018 0.029,0.012 0.054,0.029 0.075,0.05 0.021,0.021 0.038,0.046 0.05,0.075 0.012,0.029 0.018,0.059 0.018,0.091 0,0.032 -0.006,0.062 -0.018,0.091 C 4.318,-0.072 4.301,-0.047 4.28,-0.026 4.259,-0.005 4.234,0.012 4.205,0.024 4.176,0.036 4.146,0.042 4.114,0.042 4.082,0.042 4.052,0.036 4.023,0.024 3.994,0.012 3.969,-0.005 3.948,-0.026 3.927,-0.047 3.91,-0.072 3.898,-0.101 3.886,-0.13 3.88,-0.16 3.88,-0.192 Z" style="fill:url(#linearGradient982);fill-rule:nonzero;fill-opacity:1" id="path877" inkscape:connector-curvature="0"/>
        <path d="m 5.634,-0.754 c 0,0.06 0.011,0.115 0.034,0.166 0.023,0.051 0.053,0.095 0.092,0.132 0.039,0.037 0.084,0.066 0.135,0.087 0.051,0.021 0.106,0.031 0.163,0.031 0.057,0 0.112,-0.01 0.163,-0.031 0.051,-0.021 0.097,-0.05 0.136,-0.087 0.039,-0.037 0.07,-0.081 0.093,-0.132 0.023,-0.051 0.034,-0.106 0.034,-0.166 0,-0.06 -0.011,-0.115 -0.034,-0.166 C 6.427,-0.971 6.396,-1.015 6.357,-1.052 6.318,-1.089 6.272,-1.118 6.221,-1.139 6.17,-1.16 6.115,-1.17 6.058,-1.17 c -0.057,0 -0.112,0.01 -0.163,0.031 -0.051,0.021 -0.096,0.05 -0.135,0.087 -0.039,0.037 -0.069,0.081 -0.092,0.132 -0.023,0.051 -0.034,0.106 -0.034,0.166 z m -0.41,0 c 0,-0.112 0.021,-0.216 0.062,-0.313 0.041,-0.097 0.099,-0.181 0.172,-0.253 0.073,-0.072 0.161,-0.128 0.263,-0.169 0.102,-0.041 0.214,-0.061 0.337,-0.061 0.121,0 0.233,0.02 0.336,0.061 0.103,0.041 0.191,0.097 0.265,0.169 0.074,0.072 0.132,0.156 0.173,0.253 0.041,0.097 0.062,0.201 0.062,0.313 0,0.112 -0.021,0.216 -0.062,0.313 C 6.791,-0.344 6.733,-0.26 6.659,-0.188 6.585,-0.116 6.497,-0.06 6.394,-0.019 6.291,0.022 6.179,0.042 6.058,0.042 5.935,0.042 5.823,0.022 5.721,-0.019 5.619,-0.06 5.531,-0.116 5.458,-0.188 5.385,-0.26 5.327,-0.344 5.286,-0.441 5.245,-0.538 5.224,-0.642 5.224,-0.754 Z" style="fill:url(#linearGradient982);fill-rule:nonzero;fill-opacity:1" id="path879" inkscape:connector-curvature="0"/>
        <path d="M 7.97,-1.122 C 7.927,-1.157 7.885,-1.182 7.842,-1.199 7.799,-1.216 7.758,-1.224 7.718,-1.224 c -0.051,0 -0.092,0.012 -0.124,0.036 -0.032,0.024 -0.048,0.055 -0.048,0.094 0,0.027 0.008,0.049 0.024,0.066 0.016,0.017 0.037,0.032 0.063,0.045 0.026,0.013 0.055,0.024 0.088,0.033 0.033,0.009 0.065,0.019 0.097,0.03 0.128,0.043 0.222,0.1 0.281,0.171 0.059,0.071 0.089,0.164 0.089,0.279 0,0.077 -0.013,0.147 -0.039,0.21 C 8.123,-0.197 8.085,-0.144 8.035,-0.099 7.985,-0.054 7.924,-0.02 7.851,0.005 7.778,0.03 7.696,0.042 7.604,0.042 c -0.191,0 -0.367,-0.057 -0.53,-0.17 l 0.168,-0.316 c 0.059,0.052 0.117,0.091 0.174,0.116 0.057,0.025 0.114,0.038 0.17,0.038 0.064,0 0.112,-0.015 0.143,-0.044 0.031,-0.029 0.047,-0.063 0.047,-0.1 0,-0.023 -0.004,-0.042 -0.012,-0.059 C 7.756,-0.51 7.743,-0.525 7.724,-0.539 7.705,-0.553 7.681,-0.566 7.651,-0.578 7.621,-0.59 7.585,-0.603 7.542,-0.618 7.491,-0.634 7.442,-0.652 7.393,-0.671 7.344,-0.69 7.301,-0.716 7.263,-0.748 7.225,-0.78 7.194,-0.82 7.171,-0.869 7.148,-0.918 7.136,-0.979 7.136,-1.054 c 0,-0.075 0.012,-0.142 0.037,-0.203 0.025,-0.061 0.059,-0.113 0.104,-0.156 0.045,-0.043 0.099,-0.077 0.164,-0.101 0.065,-0.024 0.137,-0.036 0.217,-0.036 0.075,0 0.153,0.01 0.234,0.031 0.081,0.021 0.159,0.051 0.234,0.091 z" style="fill:url(#linearGradient982);fill-rule:nonzero;fill-opacity:1" id="path881" inkscape:connector-curvature="0"/>
        <path d="M 9.52,-1.004 C 9.429,-1.115 9.317,-1.17 9.184,-1.17 c -0.059,0 -0.113,0.011 -0.163,0.032 -0.05,0.021 -0.093,0.05 -0.129,0.087 -0.036,0.037 -0.064,0.08 -0.085,0.131 -0.021,0.051 -0.031,0.105 -0.031,0.164 0,0.06 0.01,0.115 0.031,0.166 0.021,0.051 0.049,0.095 0.086,0.132 0.037,0.037 0.08,0.067 0.129,0.088 0.049,0.021 0.103,0.032 0.16,0.032 0.125,0 0.238,-0.053 0.338,-0.16 v 0.464 L 9.48,-0.02 C 9.42,0.001 9.364,0.017 9.312,0.027 9.26,0.037 9.209,0.042 9.158,0.042 9.054,0.042 8.954,0.022 8.859,-0.017 8.764,-0.056 8.68,-0.112 8.607,-0.183 8.534,-0.254 8.476,-0.339 8.432,-0.437 8.388,-0.535 8.366,-0.642 8.366,-0.758 c 0,-0.116 0.022,-0.222 0.065,-0.319 0.043,-0.097 0.101,-0.18 0.174,-0.25 0.073,-0.07 0.157,-0.125 0.253,-0.164 0.096,-0.039 0.197,-0.059 0.302,-0.059 0.06,0 0.119,0.006 0.177,0.019 0.058,0.013 0.119,0.032 0.183,0.059 z" style="fill:url(#linearGradient982);fill-rule:nonzero;fill-opacity:1" id="path883" inkscape:connector-curvature="0"/>
      </g>
      <g id="rect9931" transform="matrix(1.89392,0,0,0.945274,-17.2605,-18.7148)" style="fill:url(#linearGradient982);fill-opacity:1">
        <rect x="0.054000001" y="196.51199" width="39.584" height="100.458" style="fill:url(#linearGradient982);fill-opacity:1" id="rect887"/>
      </g>
    </g>
  </g>
  <g transform="matrix(0.0956609,0,0,0.0956609,119.457,280.461)" id="g50">
    <path inkscape:connector-curvature="0" style="fill:#666666;fill-rule:nonzero" d="m 224.699,869.111 h 27.948 l 26.026,86.945 26.911,-86.945 h 27.806 l -36.174,108.69 c -3.38,10.021 -9.436,15.027 -18.173,15.027 -8.854,0 -14.971,-5.059 -18.345,-15.181 z" id="path42"/>
    <path inkscape:connector-curvature="0" style="fill:#666666;fill-rule:nonzero" d="m 335.484,961.026 v -91.915 h 26.211 v 91.041 c 0.464,3.263 3.495,4.893 9.087,4.893 h 17.824 c 5.357,0 8.328,-1.512 8.912,-4.543 l 0.175,-0.874 v -90.517 h 26.211 v 91.74 c 0,8.038 -0.873,13.747 -2.621,17.125 -4.66,8.972 -12.873,13.455 -24.639,13.455 h -33.9 c -12.118,0 -20.388,-4.601 -24.814,-13.805 -1.632,-3.377 -2.446,-8.911 -2.446,-16.6 z" id="path44"/>
    <path inkscape:connector-curvature="0" style="fill:#666666;fill-rule:nonzero" d="m 435.961,961.551 v -92.439 h 26.212 v 90.342 c 0,3.73 2.211,5.592 6.64,5.592 h 46.657 l -0.175,26.387 h -48.754 c -1.747,0 -3.263,-0.058 -4.543,-0.175 -9.437,-0.813 -16.137,-3.582 -20.096,-8.3 -3.962,-4.72 -5.941,-11.854 -5.941,-21.407 z" id="path46"/>
    <path inkscape:connector-curvature="0" style="fill:#666666;fill-rule:nonzero" d="m 516.341,895.497 v -26.386 h 78.635 v 26.386 H 568.59 v 95.935 h -26.212 v -95.935 z" id="path48"/>
  </g>
  <g transform="matrix(0.0359254,0,0,0.0359254,129.829,366.685)" id="g8091">
    <path inkscape:connector-curvature="0" style="fill:#757575;fill-rule:nonzero;stroke:#353535;stroke-width:17px" d="m 210.282,78.87 c 0,-125.517 -101.752,-227.268 -227.271,-227.268 -125.514,0 -227.267,101.751 -227.267,227.268 0,125.516 101.752,227.268 227.267,227.268 125.519,0 227.271,-101.752 227.271,-227.268 z" id="path4"/>
    <g transform="translate(-426.825,-542.575)" id="g40">
      <path inkscape:connector-curvature="0" style="fill:#2b2b2b;fill-rule:nonzero" d="m 357.002,759.965 15.391,-24.781 -29.594,-66.614 -61.688,-63.583 12.788,86.322 16.629,35.632 23.179,35.166 z" id="polygon6"/>
      <path inkscape:connector-curvature="0" style="fill:#262626;fill-rule:nonzero" d="m 460.762,760.17 -15.392,-24.783 29.597,-66.612 61.685,-63.582 -12.787,86.321 -16.63,35.631 -23.175,35.168 z" id="polygon8"/>
      <path inkscape:connector-curvature="0" style="fill:#424242;fill-rule:nonzero" d="m 337.948,452.81 71.936,-18.383 V 808.75 L 372.316,734.951 342.799,668.57 314.328,652.395 257.223,571.1 l -1.598,-21.58 31.971,-57.547 z" id="polygon12"/>
      <path inkscape:connector-curvature="0" style="fill:#333333;fill-rule:nonzero" d="m 481.727,452.944 -71.932,-18.382 v 374.325 l 37.564,-73.801 29.518,-66.379 28.473,-16.178 57.101,-81.295 1.599,-21.579 -31.969,-57.547 z" id="polygon14"/>
      <path inkscape:connector-curvature="0" style="fill:#4c4c4c;fill-rule:nonzero" d="m 361.886,616.429 47.96,-46.887 v 34.229 l -47.96,47.827 v -35.169" id="polyline16"/>
      <path inkscape:connector-curvature="0" style="fill:#5b5b5b;fill-rule:nonzero" d="m 409.881,603.732 -47.957,47.827 10.469,83.625 37.491,73.566 z" id="polygon18"/>
      <path inkscape:connector-curvature="0" style="fill:#333333;fill-rule:nonzero" d="m 409.884,808.75 -37.491,-73.566 37.485,-17.672 z" id="polygon20"/>
      <path inkscape:connector-curvature="0" style="fill:#ffffff;fill-rule:nonzero" d="M 361.924,651.559 V 616.39 l -34.766,-43.958 -41.119,-33.129 -0.043,25.934 21.582,50.752 z" id="polygon22"/>
      <path inkscape:connector-curvature="0" style="fill:#2d2d2d;fill-rule:nonzero" d="m 457.816,616.448 -47.957,-46.887 v 34.229 l 47.957,47.826 v -35.168" id="polyline24"/>
      <path inkscape:connector-curvature="0" style="fill:#353535;fill-rule:nonzero" d="m 409.804,603.732 47.954,47.827 -10.469,83.625 -37.488,73.566 z" id="polygon26"/>
      <path inkscape:connector-curvature="0" style="fill:#191919;fill-rule:nonzero" d="m 409.801,808.75 37.488,-73.566 -37.482,-17.672 z" id="polygon28"/>
      <path inkscape:connector-curvature="0" style="fill:#ffffff;fill-rule:nonzero" d="m 457.758,651.559 v -35.168 l 34.765,-43.958 41.122,-33.13 0.041,25.935 -21.578,50.753 z" id="polygon30"/>
      <path inkscape:connector-curvature="0" style="fill:#383838;fill-rule:nonzero" d="M 338.399,452.22 409.824,569.549 409.67,434.003" id="polyline32"/>
      <path inkscape:connector-curvature="0" style="fill:#2d2d2d;fill-rule:nonzero" d="M 481.271,452.232 409.846,569.561 410,434.016" id="polyline34"/>
      <path inkscape:connector-curvature="0" style="fill:#333333;fill-rule:nonzero" d="m 342.815,668.578 19.143,-16.982 10.448,83.674 z" id="polygon36"/>
      <path inkscape:connector-curvature="0" style="fill:#1c1c1c;fill-rule:nonzero" d="m 476.975,668.989 -19.144,-16.982 -10.448,83.675 z" id="polygon38"/>
    </g>
  </g>
</svg>
